packages/icons/web/gift_filled_large.svg

<svg width="24" height="24" viewBox="0 0 24 24" fill="none" xmlns="http://www.w3.org/2000/svg">
<path fill-rule="evenodd" clip-rule="evenodd" d="M11 14.2H4.50977V19.6C4.50977 20.4836 5.22611 21.2 6.10977 21.2H11V14.2ZM13 14.2V21.2H17.9098C18.7934 21.2 19.5098 20.4836 19.5098 19.6V14.2H13Z" fill="#212933"/>
<path fill-rule="evenodd" clip-rule="evenodd" d="M3.7 7.19995C3.3134 7.19995 3 7.51335 3 7.89995V11.5C3 11.8866 3.3134 12.2 3.7 12.2H11V7.19995H3.7ZM13 7.19995V12.2H20.3C20.6866 12.2 21 11.8866 21 11.5V7.89995C21 7.51335 20.6866 7.19995 20.3 7.19995H13Z" fill="#212933"/>
<path fill-rule="evenodd" clip-rule="evenodd" d="M5.23447 7.19995C4.42035 5.36885 5.79976 3 8.2352 3C9.73944 3 10.9885 3.96927 12 5.80952C13.0115 3.96927 14.2606 3 15.7648 3C18.2002 3 19.5796 5.36885 18.7655 7.19995H16.4912C16.7875 7.118 17.0046 7.00391 17.1408 6.86098C17.8977 6.06656 17.2506 4.61113 15.7648 4.61113C14.777 4.61113 13.8594 5.42787 13.0357 7.19227C13.0548 7.19486 13.0738 7.19742 13.0927 7.19995H10.9072C10.9262 7.19742 10.9452 7.19486 10.9643 7.19227C10.1405 5.42787 9.22299 4.61113 8.23518 4.61113C6.7494 4.61113 6.10231 6.06656 6.85917 6.86098C6.99535 7.00391 7.21249 7.118 7.50882 7.19995H5.23447Z" fill="#212933"/>
</svg>

<svg width="24" height="24" fill="none" xmlns="http://www.w3.org/2000/svg">
    <path fill-rule="evenodd" clip-rule="evenodd" d="M11 14.2H4.51v5.4a1.6 1.6 0 001.6 1.6H11v-7zm2 0v7h4.91a1.6 1.6 0 001.6-1.6v-5.4H13zm-9.3-7a.7.7 0 00-.7.7v3.6a.7.7 0 00.7.7H11v-5H3.7zm9.3 0v5h7.3a.7.7 0 00.7-.7V7.9a.7.7 0 00-.7-.7H13z" fill="currentColor"/>
    <path fill-rule="evenodd" clip-rule="evenodd" d="M5.234 7.2C4.42 5.369 5.8 3 8.235 3 9.74 3 10.99 3.97 12 5.81 13.011 3.97 14.26 3 15.765 3c2.435 0 3.815 2.369 3 4.2h-2.274c.297-.082.514-.196.65-.339.757-.794.11-2.25-1.376-2.25-.988 0-1.906.817-2.73 2.581l.058.008h-2.186l.057-.008c-.824-1.764-1.741-2.58-2.729-2.58-1.486 0-2.133 1.455-1.376 2.249.136.143.353.257.65.339H5.234z" fill="currentColor"/>
</svg>
